X:17
T:Bass Minuet. TBe.017
M:3/4
L:1/4
Q:1/4=100
K:F
C | F/E/F/G/ F | C F2 | GAB | A d/c/ d |\
c F2 | B B,A, | G,GE | F3 ||!
c | f/e/f/g/f/g/ | ea2 | d b/a/ b | g c'2 |\
dbd | ca2 | d g/f/g/e/ f3 |]